dist/assets/images/html-embed.svg

<?xml version="1.0" encoding="utf-8"?>
<!DOCTYPE svg PUBLIC "-//W3C//DTD SVG 1.1//EN" "http://www.w3.org/Graphics/SVG/1.1/DTD/svg11.dtd">
<svg version="1.1" id="Layer_1" xmlns="http://www.w3.org/2000/svg" xmlns:xlink="http://www.w3.org/1999/xlink" x="0px" y="0px"
   width="512px" height="512px" viewBox="0 0 512 512" enable-background="new 0 0 512 512" xml:space="preserve">
<g>
  <path d="M256,0C114.609,0,0,114.609,0,256c0,141.392,114.609,256,256,256c141.392,0,256-114.608,256-256
    C512,114.609,397.392,0,256,0z M256,472c-119.297,0-216-96.702-216-216c0-119.297,96.703-216,216-216c119.298,0,216,96.703,216,216
    C472,375.298,375.298,472,256,472z" fill="#666366"/>

  <path d="M222.012,293.484v25.212L132.4,279.849v-21.556l89.612-38.838v25.388l-62.439,24.058L222.012,293.484z" fill="#666366" />
  <path d="M277.425,218.919l-24.95,102.713c-0.83,3.38-1.554,6.056-2.178,8.018c-0.624,1.961-1.569,3.495-2.847,4.581
    c-1.277,1.102-3.133,1.649-5.572,1.649c-6.05,0-9.083-2.62-9.083-7.835c0-1.368,0.593-4.783,1.78-10.245l24.854-102.713
    c1.308-5.461,2.555-9.204,3.742-11.22c1.187-2.019,3.5-3.03,6.95-3.03c2.968,0,5.241,0.714,6.81,2.14
    c1.574,1.426,2.364,3.387,2.364,5.879C279.296,210.697,278.667,214.051,277.425,218.919z" fill="#666366" />
  <path d="M379.599,279.849l-89.611,39.022v-25.212l62.625-24.583l-62.625-24.234v-25.031l89.611,38.658V279.849z" fill="#666366" />
</g>
</svg>

<?xml version="1.0" encoding="UTF-8" standalone="no"?>
<svg width="512px" height="512px" viewBox="0 0 512 512" version="1.1" xmlns="http://www.w3.org/2000/svg" xmlns:xlink="http://www.w3.org/1999/xlink">
    <!-- Generator: Sketch 3.8.3 (29802) - http://www.bohemiancoding.com/sketch -->
    <title>Slice 1</title>
    <desc>Created with Sketch.</desc>
    <defs></defs>
    <g id="Page-1" stroke="none" stroke-width="1" fill="none" fill-rule="evenodd">
        <g id="html-embed" fill="#2F2F2F">
            <g id="Group">
                <path d="M256,0 C114.609,0 0,114.609 0,256 C0,397.392 114.609,512 256,512 C397.392,512 512,397.392 512,256 C512,114.609 397.392,0 256,0 L256,0 Z M256,472 C136.703,472 40,375.298 40,256 C40,136.703 136.703,40 256,40 C375.298,40 472,136.703 472,256 C472,375.298 375.298,472 256,472 L256,472 Z" id="Shape"></path>
                <polygon id="Shape" points="222.012 293.484 222.012 318.696 132.4 279.849 132.4 258.293 222.012 219.455 222.012 244.843 159.573 268.901"></polygon>
                <path d="M277.425,218.919 L252.475,321.632 C251.645,325.012 250.921,327.688 250.297,329.65 C249.673,331.611 248.728,333.145 247.45,334.231 C246.173,335.333 244.317,335.88 241.878,335.88 C235.828,335.88 232.795,333.26 232.795,328.045 C232.795,326.677 233.388,323.262 234.575,317.8 L259.429,215.087 C260.737,209.626 261.984,205.883 263.171,203.867 C264.358,201.848 266.671,200.837 270.121,200.837 C273.089,200.837 275.362,201.551 276.931,202.977 C278.505,204.403 279.295,206.364 279.295,208.856 C279.296,210.697 278.667,214.051 277.425,218.919 L277.425,218.919 Z" id="Shape"></path>
                <polygon id="Shape" points="379.599 279.849 289.988 318.871 289.988 293.659 352.613 269.076 289.988 244.842 289.988 219.811 379.599 258.469"></polygon>
            </g>
        </g>
    </g>
</svg>
